vendor/shopware/storefront/Resources/app/storefront/dist/assets/icon/default/checkmark-wide-block.svg

<svg xmlns="http://www.w3.org/2000/svg" width="24" height="24" viewBox="0 0 24 24">
  <path fill="#758CA3" fill-rule="evenodd" d="M16.5857864,4 L3,4 C2.44771525,4 2,4.44771525 2,5 L2,19 C2,19.5522847 2.44771525,20 3,20 L17,20 C17.5522847,20 18,19.5522847 18,19 L18,11.4142136 L12.4142136,17 C11.633165,17.7810486 10.366835,17.7810486 9.58578644,17 L5,12.4142136 C4.21895142,11.633165 4.21895142,10.366835 5,9.58578644 L6.58578644,8 C7.36683502,7.21895142 8.63316498,7.21895142 9.41421356,8 L11,9.58578644 L16.5857864,4 Z M20,9.41421356 L20,19 C20,20.6568542 18.6568542,22 17,22 L3,22 C1.34314575,22 3.33066907e-16,20.6568542 0,19 L0,5 C-1.66533454e-16,3.34314575 1.34314575,2 3,2 L18.5857864,2 C19.366835,1.21895142 20.633165,1.21895142 21.4142136,2 L23,3.58578644 C23.7810486,4.36683502 23.7810486,5.63316498 23,6.41421356 L20,9.41421356 Z M11,15.5857864 L21.5857864,5 L20,3.41421356 L11,12.4142136 L8,9.41421356 L6.41421356,11 L11,15.5857864 Z"/>
</svg>

<svg xmlns="http://www.w3.org/2000/svg" width="24" height="24" viewBox="0 0 24 24"><path fill="#758CA3" fill-rule="evenodd" d="M16.5858 4H3c-.5523 0-1 .4477-1 1v14c0 .5523.4477 1 1 1h14c.5523 0 1-.4477 1-1v-7.5858L12.4142 17c-.781.781-2.0474.781-2.8284 0L5 12.4142c-.781-.781-.781-2.0474 0-2.8284L6.5858 8c.781-.781 2.0474-.781 2.8284 0L11 9.5858 16.5858 4zM20 9.4142V19c0 1.6569-1.3431 3-3 3H3c-1.6569 0-3-1.3431-3-3V5c0-1.6569 1.3431-3 3-3h15.5858c.781-.781 2.0474-.781 2.8284 0L23 3.5858c.781.781.781 2.0474 0 2.8284l-3 3zm-9 6.1716L21.5858 5 20 3.4142l-9 9-3-3L6.4142 11 11 15.5858z"/></svg>
